X:3423
T:La Parisienne
O:england
M:3/8
L:1/16
K:C
ef|g3ag2|fgfede|f2d2ef|\
g3ag2|fgfede|1 c4:|2 c6||
|:def2f2|e2dedc|Bcd2d2|\
def2f2|e2dedB|1 c6:|2 c4||


